X:1
T:Tuba Fanfare low
T:Tuba Fanfare low
L:1/8
M:4/4
K:Bb
V:1 bass nm="B♭ Tuba" snm="B♭ Tu."
V:1
!ff! .B,,, z2 .B,,, .E,, z .G,, z | .B,,.B,, z2 .B,,.B,, z2 | .B,,, z2 .B,,, .E,, z .G,, z | %3
 .B,,.B,, z2 .B,,.B,,.G,, z | _A,, z2 .E,, .G,,.A,,.G,, z |!ff! F,, z2 .E,, .G,,.B,, z2 | %6
 E,, z2 ._G,, .F,,.E,,._D,,._C,, | B,,,4 _D,,4 | _C,,4 z4 |] %9

